!!!OTL: Martine sancte Pontifex
**kern
*staff1
=1-
*clefF3
*k[]
*M3/1
1D
0D
=2
1D
0C
=3
1G
1A
0E
0F
!!linebreak:original
=4
1D
0C
1C
1D
0C
1D
0AA
0D
=5
1D
0C
=6
1BB
0AA
=7
!!linebreak:original
1AA
0E
=8
1AA
0D
=9
1F
0C
=10
1D
0AA
=11
!!linebreak:original
1C
0C
1C
=12
1D
0C
1D
=13
0AA
0D
!!linebreak:original
=14
1D
0C
=15
1G
1A
0G
=16
1A
0E
=17
0AA
==
*-
!!title: @{OTL}, @{GTL}, ed. @{ENC}
!!!pag:
!!!GTL: Hymnbook D
!!!EFL: 
!!!YEM: Creative Commons CC/BY/NC/SA 4.0
!!!ENC: Marcin Konik
!!!END: 2015-0m-dd
!!!EED: Marcin Konik
!!!EEV: 
!!!ONB: Encoded in vim by Marcin Konik
!!!CharacterEncoding: utf-8
!!!RDF**kern: l=long note in original notation
!!!RDF**kern: i=editorial accidental
!!muse2ps: z14jc180F
!!!COM: Anonim
!!!CDT: [?]
!!!TXO: Polish
!!!ODT: 
!!!GTL: Hymnbook D
!!!ARL: Opactwo św. Wojciecha, Staniątki 
!!!voices:	1
